!!!SOCIAL_FUNCTION:	ca'koramu's dance songs
!!!PDT:	1932
!!!OTL: No_97_Song_Concerning_the_Meadow_Lark_and_the_Diver.krn
!!!REG: Southwest
!!!LANG: Non-Tone
!!!LING_GROUP: Yuman-Cochimi
**kern	**kern
*staff2	*staff1
=1-	=1-
*clefF4	*clefF4
*k[b-e-a-d-g-]	*k[b-e-a-d-g-]
*M2/4	*M2/4
2r	4r
.	8.r
.	16E-\
=2	=2
4FF/	4E-\
8FF/L	8.E-\L
8FF/J	.
.	16D-\Jk
=3	=3
4FF/	8D-\L
.	24D-\K
.	12D-\J
8FF/L	8BB-/
8FF/J	16r
.	16E-\
=4	=4
4FF/	4E-\
8FF/L	8.F\L
8FF/J	.
.	16E-\Jk
=5	=5
4FF/	8F\L
.	24E-\K
.	12F\J
8FF/L	8D-\
8FF/J	16r
.	16E-\
=6||	=6||
*M3/4	*M3/4
4FF/	16F\LL
.	16E-\
.	16.F\
.	32D-\JJk
8FF/L	8D-\L
8FF/J	24D-\K
.	12D-\J
4FF/	8BB-/
.	16r
.	16E-\
=7	=7
8FF/L	16F\LL
.	16E-\
8FF/J	16.F\
.	32D-\JJk
4FF/	8F\L
.	24E-\K
.	12F\J
8FF/L	8.D-\L
8FF/J	.
.	16E-\Jk
=8	=8
4FF/	16F\LL
.	16E-\
.	16.F\
.	32D-\JJk
8FF/L	8D-\L
8FF/J	24D-\K
.	12D-\J
4FF/	8BB-/
.	16r
.	16F\
=9||	=9||
*M2/4	*M2/4
4FF/	4E-\
8FF/L	8.F\L
8FF/J	.
.	16D-\Jk
=10	=10
4FF/	8F\L
.	24E-\K
.	12F\J
8FF/L	8D-\
8FF/J	16r
.	16F\
=11	=11
4FF/	4E-\
8FF/L	8.F\L
8FF/J	.
.	16D-\Jk
=12	=12
4FF/	8D-\L
.	24D-\K
.	12D-\J
8FF/L	8BB-/
8FF/J	16r
.	16F\
=13	=13
4FF/	4E-\
8FF/L	8.F\L
8FF/J	.
.	16D-\Jk
=14	=14
4FF/	16.F\LL
.	32E-\K
.	16F\
.	16E-\JJ
8FF/L	8D-\
8FF/J	16r
.	16F\
=15	=15
4FF/	4E-\
8FF/L	8.F\L
8FF/J	.
.	16D-\Jk
=16	=16
4FF/	8D-\L
.	24D-\K
.	12D-\J
8FF/L	8BB-/
8FF/J	16r
.	16F\
=17	=17
4FF/	4E-\
8FF/L	8.F\L
8FF/J	.
.	16F\Jk
=18	=18
4FF/	8A-\L
.	24B-\K
.	12A-\J
8FF/L	8F\
8FF/J	16r
.	16B-\
=19	=19
4FF/	4..A-\
8FF/L	.
8FF/J	.
.	16F\
=20	=20
4FF/	16.F\LL
.	32E-\K
.	16F\
.	16E-\JJ
8FF/L	8D-\
8FF/J	16r
.	16F\
=21||	=21||
*M3/4	*M3/4
4FF/	16F\LL
.	[16E-\
.	16E-\]
.	16F\JJ
8FF/L	16.F\LL
.	32E-\K
8FF/J	16F\
.	16E-\JJ
4FF/	8D-\
.	16r
.	16F\
=22	=22
8FF/L	16F\LL
.	16E-\
8FF/J	16.F\
.	32D-\JJk
4FF/	8D-\L
.	24D-\K
.	12D-\J
8FF/L	8BB-/
8FF/J	16r
.	16F\
=23||	=23||
*M2/4	*M2/4
4FF/	4E-\
8FF/L	8.F\L
8FF/J	.
.	16D-\Jk
=24	=24
4FF/	16.F\LL
.	32E-\K
.	16F\
.	16E-\JJ
8FF/L	8D-\
8FF/J	16r
.	16F\
=25	=25
4FF/	4E-\
8FF/L	8.F\L
8FF/J	.
.	16D-\Jk
=26	=26
4FF/	8D-\L
.	24D-\K
.	12D-\J
8FF/L	8BB-/
8FF/J	8r
==	==
*-	*-
